X:1
T:Humility (Tuckerman), LM
T:Samuel Parkman Tuckerman, 1848
T:Humility (Tuckerman), LM
T:Public Domain
C:Samuel Parkman Tuckerman, 1848
Z:Public Domain
%%score ( 1 2 ) ( 3 4 )
L:1/8
M:4/4
K:F
V:1 treble 
V:2 treble 
V:3 bass 
V:4 bass 
V:1
 F4 [EG]2 [FA]2 | (c2 B2) [FA]4 | F4 [EG]4 | [FA]8 | [Fc]4 [F=B]2 [Fc]2 | (d2 c2) [FA]4 | %6
 [EG]4 [Fd]4 | [Ec]8 | [CA]4 [EG]2 F2 | (c2 B2) [FA]4 | [DG]4 F4 | [EB]8 | [FA]4 [F^G]2 [FA]2 | %13
 [Ec]4 (F2 G2) | [FA]4 [EG]4 | [CF]8 |] %16
V:2
 F4 x4 | F4 x4 | F4 x4 | x8 | x8 | F4 x4 | x8 | x8 | x6 F2 | F4 x4 | x4 F4 | x8 | x8 | x4 F4 | x8 | %15
 x8 |] %16
V:3
 [F,A,]4 [F,B,]2 [F,C]2 | [F,D]4 [F,C]4 | [A,C]4 C4 | [F,C]8 | [F,A,]4 [F,^G,]2 [F,A,]2 | %5
 (B,2 A,2) [F,C]4 | [G,C]4 [G,=B,]4 | [C,C]8 | [F,C]4 [F,B,]2 [F,A,]2 | (E2 D2) [F,C]4 | %10
 [B,D]4 [A,C]4 | [G,C]8 | [F,C]4 [F,=B,]2 [F,C]2 | (C2 B,2) [D,A,]2 [B,,D]2 | [C,C]4 [C,B,]4 | %15
 [F,A,]8 |] %16
V:4
 x8 | x8 | x8 | x8 | x8 | F,4 x4 | x8 | x8 | x8 | F,4 x4 | x8 | x8 | x8 | C,4 x4 | x8 | x8 |] %16

